uploads/global/teams_03.svg

<svg height="37" viewBox="0 0 38 37" width="38" xmlns="http://www.w3.org/2000/svg"><g fill="none" fill-rule="evenodd" stroke="#0ad93e" stroke-width="1.3" transform="translate(1)"><path d="m23.4989259 26.8293143c-.2359421-.301041-.6639653-.3763012-.9906543-.1806246-1.5502606.948279-3.3198264 1.4449966-5.1151038 1.4449966-5.4206186 0-9.83092093-4.395198-9.83092093-9.7838312 0-4.8317073 3.62231623-8.98607258 8.42585543-9.67846679.3720626-.04515614.6488408-.36124915.6488408-.73755035v-6.14123556c0-.42145735-.3387886-.7526024-.7562247-.7526024-8.75708185 0-15.8807184 7.76685674-15.8807184 17.3098551 0 9.5429984 7.80272632 17.3098552 17.3931678 17.3098552 4.2908189 0 6.6124287-.7676545 9.5541427-3.1759821.3161019-.2709369.3690376-.7224983.117971-1.0536434z" fill="#cdf8da"/><path d="m28.5 14.5c.0520946.4167567.086 1.5.5 1.5h6.5c.414 0 .0474004-3.0825183 0-3.5-.7947725-7-7.7551169-11.6714-14.75-11.5-.4138675.01014126-.75.33-.75.75v6c0 .42.336.75.75.75 4.25 0 7.25 2 7.75 6z" fill="#daf9e2"/><path d="m29 19c-.3186342 0-.3960914 1.7255461-.5 2.0442008-.5588235 1.7137344-.716989 1.9368178-2.2730502 3.3315284-.2661683.2301949-.3032783.6499622-.0844572.9343207l3.8575074 4.8869501c.11133.1489497.9058788-.5751321 1.0248867-.697 1.9751133-2 4.6230707-4.1899501 4.4751133-8.1185644-.0142642-.3787476.1479574-2.3814356-.2052275-2.3814356z"/></g></svg>

<?xml version="1.0" encoding="UTF-8"?>
<svg width="38px" height="37px" viewBox="0 0 38 37" version="1.1" xmlns="http://www.w3.org/2000/svg" xmlns:xlink="http://www.w3.org/1999/xlink">
    <!-- Generator: Sketch 52.5 (67469) - http://www.bohemiancoding.com/sketch -->
    <title>Group</title>
    <desc>Created with Sketch.</desc>
    <g id="Page-1" stroke="none" stroke-width="1" fill="none" fill-rule="evenodd">
        <g id="Artboard-4" transform="translate(-87.000000, -319.000000)" stroke="#0AD93E" stroke-width="1.3">
            <g id="Group" transform="translate(88.000000, 319.000000)">
                <path d="M23.4989259,26.8293143 C23.2629838,26.5282733 22.8349606,26.4530131 22.5082716,26.6486897 C20.958011,27.5969687 19.1884452,28.0936863 17.3931678,28.0936863 C11.9725492,28.0936863 7.56224687,23.6984883 7.56224687,18.3098551 C7.56224687,13.4781478 11.1845631,9.32378252 15.9881023,8.63138831 C16.3601649,8.58623217 16.6369431,8.27013916 16.6369431,7.89383796 L16.6369431,1.7526024 C16.6369431,1.33114505 16.2981545,1 15.8807184,1 C7.12363655,1 2.11386464e-13,8.76685674 2.11386464e-13,18.3098551 C2.11386464e-13,27.8528535 7.80272632,35.6197103 17.3931678,35.6197103 C21.6839867,35.6197103 24.0055965,34.8520558 26.9473105,32.4437282 C27.2634124,32.1727913 27.3163481,31.7212299 27.0652815,31.3900848 L23.4989259,26.8293143" id="Fill-4771" fill="#CDF8DA"></path>
                <path d="M28.5,14.5 C28.5520946,14.9167567 28.586,16 29,16 L35.5,16 C35.914,16 35.5474004,12.9174817 35.5,12.5 C34.7052275,5.5 27.7448831,0.8286 20.75,1 C20.3361325,1.01014126 20,1.33 20,1.75 L20,7.75 C20,8.17 20.336,8.5 20.75,8.5 C25,8.5 28,10.5 28.5,14.5 Z" id="Fill-4772" fill="#DAF9E2"></path>
                <path d="M29,19 C28.6813658,19 28.6039086,20.7255461 28.5,21.0442008 C27.9411765,22.7579352 27.783011,22.9810186 26.2269498,24.3757292 C25.9607815,24.6059241 25.9236715,25.0256914 26.1424926,25.3100499 L30,30.197 C30.11133,30.3459497 30.9058788,29.6218679 31.0248867,29.5 C33,27.5 35.6479574,25.3100499 35.5,21.3814356 C35.4857358,21.002688 35.6479574,19 35.2947725,19 L29,19 Z" id="Fill-4773"></path>
            </g>
        </g>
    </g>
</svg>
